X: 34397
T: Richard Cusack
R: jig
M: 6/8
K: Dmixolydian
(3AB^c|d2d dBd|c2c cAc|B2B BGB|cAA A2(3AB^c|
d2d de=f|c2c cAc|BGB A2G|FDD D2||
(3EFG|A2G AB^c|dAG FDD|DEF GAB|cAA A2 (3AB^c|
d2d dBd|c2c cAc|BGB ABG|FDD D2||

